static/assets/img/icons/theme/shopping/box-3.svg

<svg height="24" viewBox="0 0 24 24" width="24" xmlns="http://www.w3.org/2000/svg"><g fill="none" fill-rule="evenodd"><path d="m0 0h24v24h-24z" opacity="0"/><g fill="#000"><path d="m20.4061385 6.73606154c.361128.16050134.5938615.51862283.5938615.91381155v8.76172361c0 .3631671-.1968919.6977877-.5143571.8741572l-8 4.4444445c-.3020225.1677903-.6692633.1677903-.9712858 0l-8.00000003-4.4444445c-.31746519-.1763695-.51435707-.5109901-.51435707-.8741572v-8.76172361c0-.39518872.23273352-.75331021.59386153-.91381155l7.99999997-3.55555556c.2585654-.11491793.5537116-.11491793.812277 0z" opacity=".3"/><path d="m14.9671522 4.22441676-7.3671523 4.09286236v4.58840338l2 1v-4.41159668l7.6550701-4.2528167z"/></g></g></svg>

<svg width="24px" height="24px" viewBox="0 0 24 24" version="1.1" xmlns="http://www.w3.org/2000/svg" xmlns:xlink="http://www.w3.org/1999/xlink">
    <title>Icon For Box#3</title>
    <g stroke="none" stroke-width="1" fill="none" fill-rule="evenodd">
        <rect opacity="0" x="0" y="0" width="24" height="24"></rect>
        <path d="M20.4061385,6.73606154 C20.7672665,6.89656288 21,7.25468437 21,7.64987309 L21,16.4115967 C21,16.7747638 20.8031081,17.1093844 20.4856429,17.2857539 L12.4856429,21.7301984 C12.1836204,21.8979887 11.8163796,21.8979887 11.5143571,21.7301984 L3.51435707,17.2857539 C3.19689188,17.1093844 3,16.7747638 3,16.4115967 L3,7.64987309 C3,7.25468437 3.23273352,6.89656288 3.59386153,6.73606154 L11.5938615,3.18050598 C11.8524269,3.06558805 12.1475731,3.06558805 12.4061385,3.18050598 L20.4061385,6.73606154 Z" fill="#000000" opacity="0.3"></path>
        <polygon fill="#000000" points="14.9671522 4.22441676 7.5999999 8.31727912 7.5999999 12.9056825 9.5999999 13.9056825 9.5999999 9.49408582 17.25507 5.24126912"></polygon>
    </g>
</svg>
